icons/link-unlink-m.svg

<svg xmlns="http://www.w3.org/2000/svg" width="24" height="24" fill="none"><g clip-path="url(#a)"><g><path fill="#121212" d="M17.657 14.828L16.243 13.414L17.657 12C18.0284 11.6286 18.3231 11.1876 18.5241 10.7023C18.7251 10.217 18.8286 9.69679 18.8286 9.17149C18.8286 8.64619 18.7251 8.12604 18.5241 7.64072C18.3231 7.15541 18.0284 6.71444 17.657 6.34299C17.2856 5.97155 16.8446 5.6769 16.3593 5.47588C15.874 5.27486 15.3538 5.17139 14.8285 5.17139C14.3032 5.17139 13.783 5.27486 13.2977 5.47588C12.8124 5.6769 12.3714 5.97155 12 6.34299L10.586 7.75699L9.17199 6.34299L10.586 4.92899C11.7143 3.81891 13.2356 3.19965 14.8184 3.20609C16.4012 3.21254 17.9174 3.84417 19.0366 4.9634C20.1558 6.08264 20.7874 7.59879 20.7939 9.18161C20.8003 10.7644 20.1811 12.2857 19.071 13.414L17.657 14.828ZM14.828 17.657L13.414 19.071C12.8585 19.6356 12.1967 20.0846 11.4669 20.3922C10.737 20.6998 9.95341 20.8598 9.16137 20.863C8.36934 20.8662 7.5845 20.7126 6.85213 20.411C6.11977 20.1094 5.45436 19.6657 4.8943 19.1057C4.33424 18.5456 3.89061 17.8802 3.589 17.1479C3.28739 16.4155 3.13377 15.6306 3.13699 14.8386C3.14022 14.0466 3.30023 13.263 3.60779 12.5331C3.91536 11.8032 4.36439 11.1415 4.92899 10.586L6.34299 9.17199L7.75699 10.586L6.34299 12C5.97155 12.3714 5.6769 12.8124 5.47588 13.2977C5.27486 13.783 5.17139 14.3032 5.17139 14.8285C5.17139 15.3538 5.27486 15.874 5.47588 16.3593C5.6769 16.8446 5.97155 17.2856 6.34299 17.657C6.71444 18.0284 7.15541 18.3231 7.64072 18.5241C8.12604 18.7251 8.64619 18.8286 9.17149 18.8286C9.69679 18.8286 10.217 18.7251 10.7023 18.5241C11.1876 18.3231 11.6286 18.0284 12 17.657L13.414 16.243L14.828 17.657ZM14.828 7.75699L16.243 9.17199L9.17199 16.242L7.75699 14.828L14.828 7.75799V7.75699ZM5.77499 2.29299L7.70699 1.77499L8.74199 5.63999L6.81099 6.15799L5.77499 2.29399V2.29299ZM15.258 18.361L17.189 17.843L18.225 21.707L16.293 22.225L15.258 18.361ZM2.29299 5.77499L6.15699 6.81099L5.63899 8.74199L1.77499 7.70699L2.29299 5.77499ZM18.361 15.258L22.225 16.293L21.707 18.225L17.843 17.189L18.361 15.258Z"/></g></g><defs><clipPath id="a"><rect width="24" height="24" fill="white"/></clipPath></defs></svg>

<svg width="24" height="24" fill="none" xmlns="http://www.w3.org/2000/svg"><g clip-path="url(#a)"><path d="m17.657 14.828-1.414-1.414L17.657 12A4 4 0 1 0 12 6.343l-1.414 1.414-1.414-1.414 1.414-1.414a6 6 0 0 1 8.485 8.485l-1.414 1.414Zm-2.829 2.829-1.414 1.414a6.002 6.002 0 0 1-10.277-4.232 6 6 0 0 1 1.792-4.253l1.414-1.414 1.414 1.414L6.343 12A4 4 0 1 0 12 17.657l1.414-1.414 1.414 1.414Zm0-9.9 1.415 1.415-7.071 7.07-1.415-1.414 7.071-7.07v-.001ZM5.775 2.293l1.932-.518L8.742 5.64l-1.931.518-1.036-3.864v-.001Zm9.483 16.068 1.931-.518 1.036 3.864-1.932.518-1.035-3.864ZM2.293 5.775l3.864 1.036-.518 1.931-3.864-1.035.518-1.932Zm16.068 9.483 3.864 1.035-.518 1.932-3.864-1.036.518-1.931Z" /></g><defs><clipPath id="a"><path fill="#fff" d="M0 0h24v24H0z"/></clipPath></defs></svg>
